X:1
T:Title
%%score { 1 | 2 }
L:1/8
M:9/8
K:G
V:1 treble nm="Grand Piano"
V:2 bass 
V:1
 z3 z3[Q:1/4=100] [B,D][G,B,][A,C] | [B,D]3 [B,G]3 BAG | [EG]3 [CE]3 [EG][EG][EG] | D3 G3 dGB | %4
 [FA]6 BBB | d3 B3 [EA][EG]E |[M:3/4] D3 G3 |[M:3/8] ddd |[M:9/8] G3 [Ec]3 [DB][B,DG][CFA] | %9
[M:3/4] [B,G]6 |[M:3/8] [DFA][DFA][CFA] |[M:3/4] [CFA]3 .[Fc]3 |[M:3/8] EFE |[M:9/8] D3 .G3 GGG | %14
 B3 G3 [^CEG][CEA][CGB] | [DFA]6 [Dd][E^c][F=c] | B3 G3 ddd | [Ec]3 [CE]3 [EG][DF]E | D3 B3 B2 A | %19
[M:3/4] [B,G]6 |] %20
V:2
 z3 z3 [G,,G,][G,,D,][G,,D,] | [G,,G,]3 [G,,G,]3[K:treble] [G,DG][G,CG][K:bass][G,B,] | %2
 [C,C]3 [C,G,]3 [C,C][C,C][C,C] | [G,B,]3[K:treble] [G,B,D]3 [G,B,G][G,B,][G,DG] | %4
 [D,D]6 [G,DG][G,DG][G,DG] | [G,B,G]3 [G,DG]3[K:bass] [C,C][C,C][C,G,C] |[M:3/4] [G,B,]3 [G,B,D]3 | %7
[M:3/8][K:treble] [G,B,G][A,CF][B,D=F] |[M:9/8] [CE]3[K:bass] [C,G,]3 [D,G,]D,D, |[M:3/4] G,6 | %10
[M:3/8] D,D,D, |[M:3/4] D,3 .[D,A,]3 |[M:3/8] [D,A,C][D,A,C][D,A,C] | %13
[M:9/8] [G,B,]3 .[G,B,D]3 [E,B,E][E,B,E][E,B,E] | [E,G,E]3 [E,B,E]3 A,,A,,A,, | %15
 D,6 [D,A,][D,A,][D,A,] | [G,G]3 [G,B,]3 [G,B,=F][G,B,F][G,F] | %17
 [C,G,]3 [C,G,]3 [C,C][C,G,][C,G,C] | [D,G,B,]3 [D,G,D]3 [D,F,D]2 [D,F,C] |[M:3/4] [G,,D,]6 |] %20

